X: 1
T: Saimaanrannan Laulu
P: 3x
C: Raimo Turunen
Z: John Chambers <jc:trillian.mit.edu>
M: 3/4
L: 1/4
K: D
|: "D"A, D F | A2 A | B A> G | "D"F2 D | "A7"A, C E |
| G2 E | G F> E | "D"D3 :| "D"d c d | "G"B2 G \
| d c B | "D"A3 | F ^E F | "Bm"B2 F |
| "Em"A G F | "A7"E3 || "D"A, D F | A2 A | B A> G \
| "D"F2 D "I"| "A7"A, C E | G2 E | G F> E | "D"D3 |]

